X:3
T:Coucher de soleil (derrière un volet bloqué)
C:Bruno Scherrer
L:1/16
M:3/4
K:Ebmaj
V:1
|:"^A""Fm7"e8e4|e4d4c2d2-|"EbΔ"d8B2G2-|G12|
"Fm7"e8-e2e2|e4f4e2d2-|"EbΔ"d8B2G2-|G12|
"GbΔ"_d8_d4|_d4c4B4|"DbΔ"A8F2_D2-|_D8-_D4|
"CbΔ9"F6_G6|E12|z12|z12:| 
"^B""Gbm7"_f8_f4 | _f4e4_d2e2-|"FbΔ"e8_c2A2-|A12|
"Gbm7"z4_f4_f4|_f4_g4_f2e2-|"FbΔ"e8_c2a2-|a12|
"GΔ"d8d4|d4^c4=B4|"DΔ"=A8^F2d2-|d12|
"CΔ"d6c6|c4z8|z12|z12||
%%begintext
Morceau lent. Tout au long du morceau: A calme, B plus soutenu
Intro sur les 2 accords Dm7 Cmaj7
Thème
Solos
Solo de batterie sur les 2 accords Dm7 Cmaj7 (comme pour l'intro)
Thème final
%%endtext

